images/icon-bookopen-outlined.svg

<svg class="w-6 h-6" width="24" height="24" viewBox="0 0 24 24" fill="none" xmlns="http://www.w3.org/2000/svg"><path d="M11 21V7C11 6.44772 11.4477 6 12 6C12.5523 6 13 6.44772 13 7V21C13 21.5523 12.5523 22 12 22C11.4477 22 11 21.5523 11 21Z" fill="#C39900FF" style="fill-opacity:1;"/><path d="M16 4C15.2044 4 14.4415 4.3163 13.8789 4.87891C13.3163 5.44152 13 6.20435 13 7L12.9951 7.10254C12.9438 7.60667 12.5177 8 12 8C11.4477 8 11 7.55228 11 7C11 6.20435 10.6837 5.44152 10.1211 4.87891C9.55848 4.3163 8.79565 4 8 4H3V17H9L9.19824 17.0049C10.1869 17.0539 11.1248 17.4686 11.8281 18.1719C11.8876 18.2314 11.9447 18.2927 12 18.3555C12.0553 18.2927 12.1124 18.2314 12.1719 18.1719C12.922 17.4217 13.9391 17 15 17H21V4H16ZM23 17C23 17.5304 22.7891 18.039 22.4141 18.4141C22.039 18.7891 21.5304 19 21 19H15C14.4696 19 13.961 19.2109 13.5859 19.5859C13.2109 19.961 13 20.4696 13 21C13 21.5523 12.5523 22 12 22C11.4477 22 11 21.5523 11 21C11 20.4696 10.7891 19.961 10.4141 19.5859C10.0858 19.2577 9.65526 19.0551 9.19727 19.0098L9 19H3C2.46957 19 1.96101 18.7891 1.58594 18.4141C1.25765 18.0858 1.05515 17.6553 1.00977 17.1973L1 17V4C1 3.46957 1.21086 2.96101 1.58594 2.58594C1.96101 2.21086 2.46957 2 3 2H8C9.32608 2 10.5975 2.52716 11.5352 3.46484C11.7036 3.63332 11.8587 3.81256 12 4.00098C12.1413 3.81256 12.2964 3.63332 12.4648 3.46484C13.4025 2.52716 14.6739 2 16 2H21C21.5304 2 22.039 2.21086 22.4141 2.58594C22.7891 2.96101 23 3.46957 23 4V17Z" fill="#C39900FF" style="fill-opacity:1;"/></svg>

<svg xmlns="http://www.w3.org/2000/svg" width="24" height="24" fill="none" class="w-6 h-6" viewBox="0 0 24 24"><path fill="#c39900ff" d="M11 21V7a1 1 0 1 1 2 0v14a1 1 0 1 1-2 0"/><path fill="#c39900ff" d="M16 4a3 3 0 0 0-3 3l-.005.103A1 1 0 0 1 11 7a3 3 0 0 0-3-3H3v13h6l.198.005A4 4 0 0 1 12 18.355q.082-.094.172-.183A4 4 0 0 1 15 17h6V4zm7 13a2 2 0 0 1-2 2h-6a2 2 0 0 0-2 2 1 1 0 1 1-2 0 2 2 0 0 0-1.803-1.99L9 19H3a2 2 0 0 1-1.99-1.803L1 17V4a2 2 0 0 1 2-2h5a5 5 0 0 1 4 2.001A5 5 0 0 1 16 2h5a2 2 0 0 1 2 2z"/></svg>
